X: 42611
T: Whinny Hills Of Leitrim, The
R: slip jig
M: 9/8
K: Gmajor
AAA dcA d2c|AGA dcA GFG|AAA dcA d2e|fag ege dBG:|
GBB GBd ~g3|GBB GBG FED|GBB GBd gag|fgf efe dBA|
GBB GBd ~g3|GBB GBG FED|GBB GBd gag|fgf efe dBG||

